packages/ffe-icons/icons/open/300/sm/room_service.svg

<svg xmlns="http://www.w3.org/2000/svg" height="20" viewBox="0 -960 960 960" width="20"><path d="M146.616-224.31q-11.068 0-18.534-7.405-7.465-7.404-7.465-18.384 0-10.979 7.465-18.594 7.466-7.616 18.534-7.616h666.768q11.068 0 18.534 7.405 7.465 7.405 7.465 18.384 0 10.98-7.465 18.595-7.466 7.615-18.534 7.615H146.616Zm17.385-107.691v-32.615q0-113.999 74.962-200.037 74.962-86.038 190.038-106.423v-11.846q0-21.238 15.087-36.618 15.087-15.381 35.912-15.381 21.238 0 36.618 15.381 15.381 15.38 15.381 36.618v11.846q113.692 21.385 188.846 106.768 75.154 85.384 75.154 199.692v32.615H164.001ZM217.385-384h525.23q-9.692-101.923-84.961-170.577T479.5-623.231q-102.885 0-178.346 68.154Q225.692-486.923 217.385-384ZM480-384Z"/></svg>

<svg xmlns="http://www.w3.org/2000/svg" height="20" viewBox="0 -960 960 960" width="20"><path d="M146.62-224.31q-11.07 0-18.54-7.4-7.46-7.41-7.46-18.39t7.46-18.59q7.47-7.62 18.54-7.62h666.76q11.07 0 18.54 7.41 7.46 7.4 7.46 18.38 0 10.98-7.46 18.59-7.47 7.62-18.54 7.62H146.62ZM164-332v-32.62q0-114 74.96-200.03Q313.92-650.69 429-671.08v-11.84q0-21.24 15.09-36.62 15.08-15.38 35.91-15.38 21.24 0 36.62 15.38Q532-704.16 532-682.92v11.84q113.69 21.39 188.84 106.77Q796-478.92 796-364.62V-332H164Zm53.38-52h525.24q-9.7-101.92-84.97-170.58-75.27-68.65-178.15-68.65-102.88 0-178.35 68.15-75.46 68.16-83.77 171.08ZM480-384Z"/></svg>
